X: 8839
T: Cuilcagh Mountains, The
R: reel
M: 4/4
K: Edorian
E2 BE EDBA|D2 FA Bcdf|fedf edBA|FGFE DEFD|
E2 BE EDBA|D2 FA Bcdf|fedf edBA|FGFD E2E2||
e2 fe dBAB|d3e dBAB|d2 fe dBAF|EGFD Be e2|
e2 fe dBAF|(3ABc df e3(f|f)edf edfe|d3e dBAF||
E2 BE DBAB|DEFA Bcde|fedf edBA|F3E DEFD|
E2 BE DBAB|DEFA Bcde|fedf edBA|FEDF E2E2||
e2 fe dBAB|d3 e dBAB|defe dBAF|E2 FD Be e2|
e2 fe dBAB|ABdf e2 de|f3d edfe|d3e dBAF||

